;FLAVOR:Marlin
M117 Time Left 0h20m45s
;Filament used: 0.602251m
;Layer height: 0.2
;MINX:90.913
;MINY:90.926
;MINZ:0.2
;MAXX:129.095
;MAXY:129.089
;MAXZ:18.4
;POSTPROCESSED
;Generated with Cura_SteamEngine 4.4.1
M140 S60
M105
M190 S60
M104 S200
M105
M109 S200
M82 ;absolute extrusion mode
M201 X500.00 Y500.00 Z100.00 E5000.00 ;Setup machine max acceleration
M203 X500.00 Y500.00 Z10.00 E50.00 ;Setup machine max feedrate
M204 P500.00 R1000.00 T500.00 ;Setup Print/Retract/Travel acceleration
M205 X8.00 Y8.00 Z0.40 E5.00 ;Setup Jerk
M220 S100 ;Reset Feedrate
M221 S100 ;Reset Flowrate

G28 ;Home

G92 E0 ;Reset Extruder
G1 Z2.0 F3000 ;Move Z Axis up
G1 X10.1 Y20 Z0.28 F5000.0 ;Move to start position
G1 X10.1 Y200.0 Z0.28 F1500.0 E15 ;Draw the first line
G1 X10.4 Y200.0 Z0.28 F5000.0 ;Move to side a little
G1 X10.4 Y20 Z0.28 F1500.0 E30 ;Draw the second line
G92 E0 ;Reset Extruder
G1 Z2.0 F3000 ;Move Z Axis up

G92 E0
G92 E0
G1 F1500 E-6.5
;LAYER_COUNT:92
;LAYER:0
M107
G0 F6000 X96.557 Y96.466 Z0.2
;TYPE:SKIRT
G1 F1500 E0
G1 F1200 X97.228 Y95.811 E0.03119
G1 X97.733 Y95.385 E0.05316
G1 X98.41 Y94.848 E0.0819
G1 X98.768 Y94.576 E0.09686
G1 X98.956 Y94.439 E0.10459
G1 X99.389 Y94.139 E0.12211
G1 X99.576 Y94.016 E0.12956
G1 X100.354 Y93.549 E0.15974
G1 X100.75 Y93.333 E0.17474
G1 X100.901 Y93.252 E0.18044
G1 X101.276 Y93.055 E0.19453
G1 X101.387 Y92.998 E0.19868
G1 X102.023 Y92.673 E0.22244
G1 X103.185 Y92.161 E0.26467
G1 X103.413 Y92.076 E0.27276
G1 X103.88 Y91.914 E0.2892
G1 X104.404 Y91.745 E0.30752
G1 X105.492 Y91.455 E0.34497
G1 X106.028 Y91.341 E0.36319
G1 X106.373 Y91.273 E0.37489
G1 X107.025 Y91.156 E0.39692
G1 X107.693 Y91.057 E0.41938
G1 X107.933 Y91.029 E0.42742
G1 X108.761 Y90.964 E0.45504
G1 X109.302 Y90.942 E0.47305
G1 X109.635 Y90.934 E0.48413
G1 X110.408 Y90.926 E0.50984
G1 X111.403 Y90.96 E0.54295
G1 X111.714 Y90.985 E0.55333
G1 X112.424 Y91.066 E0.5771
G1 X112.903 Y91.136 E0.5932
G1 X113.259 Y91.194 E0.6052
G1 X113.626 Y91.26 E0.6176
G1 X114.323 Y91.408 E0.6413
G1 X114.638 Y91.486 E0.65209
G1 X115.37 Y91.695 E0.67741
G1 X116.195 Y91.961 E0.70624
G1 X116.54 Y92.078 E0.71836
G1 X116.885 Y92.202 E0.73055
G1 X117.616 Y92.495 E0.75674
G1 X117.851 Y92.599 E0.76529
G1 X118.341 Y92.831 E0.78332
G1 X119.025 Y93.175 E0.80879
G1 X119.844 Y93.632 E0.83998
G1 X120.358 Y93.967 E0.86039
G1 X120.597 Y94.133 E0.87007
G1 X120.853 Y94.317 E0.88055
G1 X121.429 Y94.742 E0.90436
G1 X121.603 Y94.873 E0.9116
G1 X122.001 Y95.179 E0.9283
G1 X122.553 Y95.632 E0.95205
G1 X122.905 Y95.941 E0.96763
G1 X123.583 Y96.59 E0.99885
G1 X123.948 Y96.989 E1.01683
G1 X124.235 Y97.319 E1.03138
G1 X124.355 Y97.459 E1.03751
G1 X124.582 Y97.729 E1.04924
G1 X124.697 Y97.869 E1.05527
G1 X125.11 Y98.377 E1.07705
G1 X125.487 Y98.868 E1.09764
G1 X125.733 Y99.208 E1.11159
G1 X126.293 Y100.062 E1.14556
G1 X126.619 Y100.614 E1.16688
G1 X126.793 Y100.921 E1.17862
G1 X126.924 Y101.16 E1.18768
G1 X127.339 Y102.001 E1.21888
G1 X127.541 Y102.488 E1.23641
G1 X127.921 Y103.473 E1.27153
G1 X128.047 Y103.818 E1.28374
G1 X128.175 Y104.186 E1.2967
G1 X128.447 Y105.088 E1.32804
G1 X128.52 Y105.375 E1.33789
G1 X128.684 Y106.135 E1.36375
G1 X128.825 Y106.917 E1.39017
G1 X128.878 Y107.235 E1.4009
G1 X128.951 Y107.721 E1.41724
G1 X129.062 Y108.873 E1.45574
G1 X129.085 Y109.397 E1.47318
G1 X129.095 Y110.002 E1.49331
G1 X129.089 Y110.538 E1.51113
G1 X129.04 Y111.459 E1.54181
G1 X128.997 Y111.91 E1.55688
G1 X128.949 Y112.33 E1.57094
G1 X128.873 Y112.896 E1.58993
G1 X128.709 Y113.819 E1.62111
G1 X128.592 Y114.293 E1.63735
G1 X128.345 Y115.21 E1.66894
G1 X128.238 Y115.583 E1.68184
G1 X128.047 Y116.204 E1.70345
G1 X127.757 Y117.027 E1.73248
G1 X127.657 Y117.279 E1.74149
G1 X127.441 Y117.786 E1.75982
G1 X127.275 Y118.15 E1.77313
G1 X126.654 Y119.321 E1.81722
G1 X125.999 Y120.393 E1.859
G1 X125.452 Y121.205 E1.89156
G1 X125.255 Y121.471 E1.90257
G1 X125.051 Y121.737 E1.91372
G1 X124.737 Y122.135 E1.93058
G1 X124.125 Y122.846 E1.96178
G1 X123.714 Y123.262 E1.98123
G1 X123.059 Y123.89 E2.01142
G1 X122.667 Y124.248 E2.02907
G1 X122.197 Y124.657 E2.0498
G1 X121.446 Y125.255 E2.08173
G1 X121.281 Y125.375 E2.08851
G1 X120.613 Y125.825 E2.1153
G1 X119.777 Y126.344 E2.14803
G1 X119.469 Y126.528 E2.15996
G1 X118.874 Y126.871 E2.1828
G1 X118.042 Y127.304 E2.214
G1 X117.308 Y127.616 E2.24053
G1 X116.403 Y127.962 E2.27275
G1 X115.847 Y128.157 E2.29235
G1 X115.375 Y128.309 E2.30884
G1 X114.745 Y128.492 E2.33066
G1 X114.543 Y128.544 E2.3376
G1 X113.626 Y128.739 E2.36878
G1 X113.145 Y128.809 E2.38495
G1 X112.113 Y128.936 E2.41953
G1 X111.798 Y128.97 E2.43007
G1 X111.053 Y129.04 E2.45496
G1 X110.385 Y129.082 E2.47722
G1 X110.172 Y129.089 E2.48431
G1 X109.18 Y129.077 E2.5173
G1 X108.919 Y129.062 E2.526
G1 X108.396 Y129.019 E2.54345
G1 X107.619 Y128.937 E2.56944
G1 X106.445 Y128.749 E2.60898
G1 X106.191 Y128.694 E2.61763
G1 X105.84 Y128.612 E2.62962
G1 X105.398 Y128.501 E2.64477
G1 X105.165 Y128.439 E2.65279
G1 X104.32 Y128.207 E2.68194
G1 X103.427 Y127.921 E2.71312
G1 X102.521 Y127.54 E2.74581
G1 X101.525 Y127.068 E2.78247
G1 X101.023 Y126.814 E2.80118
G1 X100.748 Y126.666 E2.81157
G1 X100.449 Y126.499 E2.82296
G1 X100.095 Y126.294 E2.83657
G1 X98.985 Y125.559 E2.88085
G1 X98.335 Y125.069 E2.90792
G1 X98.106 Y124.891 E2.91757
G1 X97.601 Y124.489 E2.93904
G1 X96.893 Y123.874 E2.97023
G1 X96.548 Y123.533 E2.98636
G1 X96.277 Y123.253 E2.99932
G1 X96.047 Y123.008 E3.0105
G1 X95.844 Y122.785 E3.02053
G1 X95.658 Y122.576 E3.02983
G1 X95.261 Y122.117 E3.05002
G1 X94.679 Y121.382 E3.0812
G1 X94.402 Y120.982 E3.09738
G1 X93.916 Y120.246 E3.12672
G1 X93.611 Y119.758 E3.14586
G1 X93.259 Y119.159 E3.16897
G1 X92.803 Y118.297 E3.2014
G1 X92.703 Y118.086 E3.20917
G1 X92.511 Y117.659 E3.22474
G1 X92.333 Y117.238 E3.23994
G1 X91.996 Y116.329 E3.27219
G1 X91.79 Y115.69 E3.29452
G1 X91.695 Y115.381 E3.30527
G1 X91.531 Y114.816 E3.32484
G1 X91.308 Y113.905 E3.35603
G1 X91.214 Y113.365 E3.37426
G1 X91.123 Y112.752 E3.39487
G1 X91.081 Y112.434 E3.40554
G1 X90.988 Y111.651 E3.43177
G1 X90.917 Y110.716 E3.46296
G1 X90.913 Y110.124 E3.48265
G1 X90.931 Y109.263 E3.51129
G1 X90.998 Y108.264 E3.54459
G1 X91.081 Y107.526 E3.56929
G1 X91.129 Y107.157 E3.58167
G1 X91.161 Y106.939 E3.589
G1 X91.287 Y106.238 E3.61269
G1 X91.337 Y106.004 E3.62064
G1 X91.512 Y105.299 E3.6448
G1 X91.688 Y104.679 E3.66624
G1 X91.779 Y104.376 E3.67676
G1 X91.988 Y103.713 E3.69988
G1 X92.254 Y102.964 E3.72632
G1 X92.35 Y102.722 E3.73498
G1 X92.564 Y102.22 E3.75313
G1 X92.732 Y101.851 E3.76661
G1 X93.157 Y101.014 E3.79784
G1 X93.296 Y100.767 E3.80726
G1 X93.43 Y100.536 E3.81615
G1 X93.555 Y100.326 E3.82427
G1 X93.677 Y100.125 E3.83209
G1 X94.028 Y99.563 E3.85413
G1 X94.587 Y98.752 E3.88689
G1 X94.78 Y98.497 E3.89753
G1 X95.284 Y97.879 E3.92405
G1 X95.937 Y97.135 E3.95698
G1 X96.192 Y96.854 E3.9696
G1 X96.557 Y96.466 E3.98732
G0 F6000 X96.848 Y96.74
G1 F1200 X97.508 Y96.097 E4.01796
G1 X97.982 Y95.698 E4.03857
G1 X98.659 Y95.161 E4.06731
G1 X99.003 Y94.899 E4.08169
G1 X99.191 Y94.762 E4.08943
G1 X99.609 Y94.473 E4.10633
G1 X99.796 Y94.35 E4.11378
G1 X100.545 Y93.9 E4.14284
G1 X100.941 Y93.684 E4.15784
G1 X101.087 Y93.606 E4.16335
G1 X101.462 Y93.409 E4.17744
G1 X101.569 Y93.354 E4.18144
G1 X102.205 Y93.029 E4.20519
G1 X103.325 Y92.536 E4.24589
G1 X103.553 Y92.451 E4.25399
G1 X104.002 Y92.295 E4.2698
G1 X104.526 Y92.126 E4.28811
G1 X105.575 Y91.846 E4.32422
G1 X106.111 Y91.732 E4.34245
G1 X106.444 Y91.667 E4.35373
G1 X107.096 Y91.55 E4.37576
G1 X107.74 Y91.454 E4.39742
G1 X107.98 Y91.426 E4.40546
G1 X108.777 Y91.364 E4.43205
G1 X109.318 Y91.342 E4.45005
G1 X109.639 Y91.334 E4.46073
G1 X110.412 Y91.326 E4.48644
G1 X111.371 Y91.359 E4.51836
G1 X111.682 Y91.384 E4.52874
G1 X112.366 Y91.461 E4.55163
G1 X112.845 Y91.531 E4.56773
G1 X113.188 Y91.587 E4.57929
G1 X113.555 Y91.653 E4.59169
G1 X114.227 Y91.797 E4.61455
G1 X114.542 Y91.875 E4.62535
G1 X115.247 Y92.075 E4.64972
G1 X116.072 Y92.341 E4.67855
G1 X116.404 Y92.455 E4.69022
G1 X116.749 Y92.579 E4.70242
G1 X117.454 Y92.861 E4.72767
G1 X117.689 Y92.965 E4.73622
G1 X118.162 Y93.188 E4.75361
G1 X118.846 Y93.532 E4.77908
G1 X119.649 Y93.981 E4.80968
G1 X120.13 Y94.296 E4.8288
G1 X120.369 Y94.462 E4.83848
G1 X120.615 Y94.639 E4.84856
G1 X121.191 Y95.064 E4.87237
G1 X121.359 Y95.19 E4.87935
G1 X121.757 Y95.496 E4.89605
G1 X122.289 Y95.933 E4.91895
G1 X122.641 Y96.242 E4.93453
G1 X123.306 Y96.879 E4.96516
G1 X123.646 Y97.252 E4.98194
G1 X123.933 Y97.582 E4.99649
G1 X124.049 Y97.717 E5.00241
G1 X124.276 Y97.987 E5.01414
G1 X124.387 Y98.121 E5.01993
G1 X124.8 Y98.629 E5.0417
G1 X125.163 Y99.102 E5.06153
G1 X125.409 Y99.442 E5.07549
G1 X125.948 Y100.266 E5.10824
G1 X126.274 Y100.818 E5.12956
G1 X126.442 Y101.113 E5.14085
G1 X126.573 Y101.352 E5.14992
G1 X126.98 Y102.178 E5.18055
G1 X127.168 Y102.632 E5.19689
G1 X127.548 Y103.617 E5.232
G1 X127.67 Y103.95 E5.2438
G1 X127.798 Y104.318 E5.25676
G1 X128.059 Y105.187 E5.28694
G1 X128.132 Y105.474 E5.29679
G1 X128.291 Y106.206 E5.3217
G1 X128.432 Y106.988 E5.34813
G1 X128.482 Y107.294 E5.35844
G1 X128.555 Y107.78 E5.37479
G1 X128.663 Y108.89 E5.41188
G1 X128.686 Y109.414 E5.42933
G1 X128.695 Y109.998 E5.44875
G1 X128.689 Y110.534 E5.46658
G1 X128.642 Y111.421 E5.49612
G1 X128.599 Y111.872 E5.51119
G1 X128.553 Y112.277 E5.52475
G1 X128.477 Y112.843 E5.54374
G1 X128.206 Y114.189 E5.58941
G1 X127.959 Y115.106 E5.621
G1 X127.856 Y115.465 E5.63342
G1 X127.665 Y116.086 E5.65503
G1 X127.386 Y116.88 E5.68302
G1 X127.286 Y117.132 E5.69204
G1 X127.077 Y117.62 E5.70969
G1 X126.911 Y117.984 E5.723
G1 X126.312 Y119.113 E5.76551
G1 X125.657 Y120.185 E5.80729
G1 X125.13 Y120.967 E5.83866
G1 X124.933 Y121.233 E5.84967
G1 X124.737 Y121.49 E5.86042
G1 X124.423 Y121.888 E5.87728
G1 X123.822 Y122.585 E5.90789
G1 X123.437 Y122.973 E5.92607
G1 X122.782 Y123.601 E5.95625
G1 X122.404 Y123.946 E5.97327
G1 X121.934 Y124.355 E5.99399
G1 X121.211 Y124.932 E6.02476
G1 X121.046 Y125.052 E6.03154
G1 X120.402 Y125.485 E6.05736
G1 X119.566 Y126.004 E6.09008
G1 X119.269 Y126.181 E6.10158
G1 X118.674 Y126.524 E6.12443
G1 X117.857 Y126.949 E6.15506
G1 X117.165 Y127.242 E6.18005
G1 X116.26 Y127.588 E6.21228
G1 X115.724 Y127.777 E6.23118
G1 X115.252 Y127.929 E6.24767
G1 X114.646 Y128.104 E6.26865
G1 X114.444 Y128.156 E6.27559
G1 X113.096 Y128.412 E6.32122
G1 X112.064 Y128.539 E6.35581
G1 X111.761 Y128.572 E6.36595
G1 X111.016 Y128.642 E6.39083
G1 X110.372 Y128.682 E6.41229
G1 X110.159 Y128.689 E6.41938
G1 X109.203 Y128.678 E6.45118
G1 X108.942 Y128.663 E6.45988
G1 X108.438 Y128.621 E6.4767
G1 X107.661 Y128.539 E6.50268
G1 X106.53 Y128.358 E6.54078
G1 X106.276 Y128.303 E6.54942
G1 X105.937 Y128.224 E6.561
G1 X105.495 Y128.113 E6.57616
G1 X105.271 Y128.054 E6.58386
G1 X104.426 Y127.822 E6.61301
G1 X103.549 Y127.54 E6.64365
G1 X102.693 Y127.179 E6.67455
G1 X101.697 Y126.707 E6.71121
G1 X101.213 Y126.462 E6.72925
G1 X100.938 Y126.314 E6.73964
G1 X100.649 Y126.153 E6.75064
G1 X100.295 Y125.948 E6.76424
G1 X99.226 Y125.239 E6.80691
G1 X98.576 Y124.749 E6.83398
G1 X98.355 Y124.578 E6.84328
G1 X97.85 Y124.176 E6.86474
G1 X96.835 Y123.255 E6.91033
G1 X96.564 Y122.975 E6.92329
G1 X96.342 Y122.739 E6.93407
G1 X96.139 Y122.516 E6.9441
G1 X95.961 Y122.314 E6.95305
G1 X95.564 Y121.855 E6.97324
G1 X94.735 Y120.762 E7.01886
G1 X94.249 Y120.026 E7.0482
G1 X93.956 Y119.555 E7.06665
G1 X93.604 Y118.956 E7.08976
G1 X93.164 Y118.126 E7.121
G1 X93.064 Y117.915 E7.12877
G1 X92.88 Y117.503 E7.14377
G1 X92.702 Y117.082 E7.15898
G1 X92.376 Y116.206 E7.19007
G1 X92.17 Y115.567 E7.2124
G1 X92.079 Y115.27 E7.22273
G1 X91.915 Y114.705 E7.24229
G1 X91.697 Y113.81 E7.27293
G1 X91.61 Y113.307 E7.28991
G1 X91.519 Y112.694 E7.31052
G1 X91.478 Y112.387 E7.32082
G1 X91.385 Y111.604 E7.34705
G1 X91.316 Y110.686 E7.37767
G1 X91.313 Y110.132 E7.3961
G1 X91.331 Y109.271 E7.42474
G1 X91.395 Y108.308 E7.45684
G1 X91.478 Y107.57 E7.48154
G1 X91.524 Y107.216 E7.49341
G1 X91.556 Y106.998 E7.50074
G1 X91.678 Y106.322 E7.52359
G1 X91.728 Y106.088 E7.53155
G1 X91.897 Y105.408 E7.55485
G1 X92.073 Y104.788 E7.57629
G1 X92.16 Y104.496 E7.58642
G1 X92.369 Y103.833 E7.60954
G1 X92.626 Y103.111 E7.63503
G1 X92.722 Y102.869 E7.64369
G1 X92.928 Y102.386 E7.66116
G1 X93.096 Y102.017 E7.67464
G1 X93.505 Y101.21 E7.70473
G1 X93.644 Y100.963 E7.71416
G1 X93.773 Y100.74 E7.72273
G1 X93.898 Y100.53 E7.73086
G1 X94.016 Y100.337 E7.73838
G1 X94.367 Y99.775 E7.76042
G1 X94.906 Y98.993 E7.79201
G1 X95.099 Y98.738 E7.80264
G1 X95.584 Y98.143 E7.82818
G1 X96.237 Y97.399 E7.8611
G1 X96.483 Y97.128 E7.87327
G1 X96.848 Y96.74 E7.89099
G0 F6000 X97.14 Y97.014
G1 F1200 X97.787 Y96.384 E7.92103
G1 X98.23 Y96.012 E7.94027
G1 X98.907 Y95.475 E7.96901
G1 X99.239 Y95.223 E7.98287
G1 X99.427 Y95.086 E7.99061
G1 X99.829 Y94.807 E8.00688
G1 X100.016 Y94.684 E8.01433
G1 X100.737 Y94.251 E8.0423
G1 X101.133 Y94.035 E8.0573
G1 X101.273 Y93.96 E8.06259
G1 X101.648 Y93.763 E8.07668
G1 X101.751 Y93.71 E8.08053
G1 X102.387 Y93.385 E8.10428
G1 X103.465 Y92.911 E8.14345
G1 X103.693 Y92.826 E8.15154
G1 X104.125 Y92.675 E8.16676
G1 X104.649 Y92.506 E8.18508
G1 X105.658 Y92.237 E8.21981
G1 X106.194 Y92.123 E8.23803
G1 X106.514 Y92.06 E8.24888
G1 X107.166 Y91.943 E8.27091
G1 X107.786 Y91.852 E8.29176
G1 X108.026 Y91.824 E8.29979
G1 X108.794 Y91.763 E8.32542
G1 X109.335 Y91.741 E8.34343
G1 X109.643 Y91.734 E8.35367
G1 X110.416 Y91.726 E8.37938
G1 X111.339 Y91.758 E8.4101
G1 X111.65 Y91.783 E8.42048
G1 X112.308 Y91.857 E8.4425
G1 X112.787 Y91.927 E8.4586
G1 X113.117 Y91.981 E8.46972
G1 X113.484 Y92.047 E8.48213
G1 X114.131 Y92.185 E8.50413
G1 X114.446 Y92.263 E8.51492
G1 X115.124 Y92.456 E8.53837
G1 X115.949 Y92.722 E8.5672
G1 X116.269 Y92.831 E8.57844
G1 X116.614 Y92.955 E8.59064
G1 X117.292 Y93.227 E8.61494
G1 X117.527 Y93.331 E8.62348
G1 X117.982 Y93.546 E8.64022
G1 X118.666 Y93.89 E8.66569
G1 X119.454 Y94.331 E8.69572
G1 X119.902 Y94.624 E8.71352
G1 X120.141 Y94.79 E8.7232
G1 X120.378 Y94.96 E8.7329
G1 X120.954 Y95.385 E8.75671
G1 X121.115 Y95.507 E8.76343
G1 X121.513 Y95.813 E8.78013
G1 X122.025 Y96.234 E8.80217
G1 X122.377 Y96.543 E8.81775
G1 X123.029 Y97.168 E8.84779
G1 X123.344 Y97.514 E8.86336
G1 X123.631 Y97.844 E8.8779
G1 X123.742 Y97.974 E8.88359
G1 X123.969 Y98.244 E8.89532
G1 X124.076 Y98.374 E8.90092
G1 X124.489 Y98.882 E8.9227
G1 X124.839 Y99.337 E8.94179
G1 X125.085 Y99.677 E8.95575
G1 X125.604 Y100.469 E8.98724
G1 X125.93 Y101.021 E9.00856
G1 X126.092 Y101.305 E9.01944
G1 X126.223 Y101.544 E9.0285
G1 X126.621 Y102.355 E9.05855
G1 X126.794 Y102.776 E9.07369
G1 X127.174 Y103.761 E9.1088
G1 X127.292 Y104.081 E9.12015
G1 X127.42 Y104.449 E9.13311
G1 X127.671 Y105.286 E9.16217
G1 X127.744 Y105.573 E9.17202
G1 X127.897 Y106.277 E9.19598
G1 X128.038 Y107.059 E9.22241
G1 X128.087 Y107.354 E9.23236
G1 X128.16 Y107.84 E9.2487
G1 X128.263 Y108.908 E9.28439
G1 X128.286 Y109.432 E9.30183
G1 X128.295 Y109.993 E9.32049
G1 X128.289 Y110.529 E9.33832
G1 X128.244 Y111.383 E9.36677
G1 X128.201 Y111.834 E9.38183
G1 X128.156 Y112.223 E9.39486
G1 X128.08 Y112.789 E9.41385
G1 X127.82 Y114.085 E9.45782
G1 X127.573 Y115.002 E9.4894
G1 X127.473 Y115.348 E9.50138
G1 X127.282 Y115.969 E9.52299
G1 X127.014 Y116.732 E9.54989
G1 X126.914 Y116.984 E9.55891
G1 X126.713 Y117.454 E9.57591
G1 X126.547 Y117.818 E9.58921
G1 X125.971 Y118.904 E9.6301
G1 X125.316 Y119.976 E9.67189
G1 X124.809 Y120.729 E9.70208
G1 X124.612 Y120.995 E9.71309
G1 X124.423 Y121.242 E9.72343
G1 X124.109 Y121.64 E9.74029
G1 X123.519 Y122.323 E9.77031
G1 X123.16 Y122.685 E9.78727
G1 X122.505 Y123.313 E9.81745
G1 X122.142 Y123.645 E9.83381
G1 X121.672 Y124.054 E9.85453
G1 X120.975 Y124.608 E9.88415
G1 X120.81 Y124.728 E9.89093
G1 X120.191 Y125.145 E9.91576
G1 X119.355 Y125.664 E9.94848
G1 X119.069 Y125.835 E9.95957
G1 X118.474 Y126.178 E9.98241
G1 X117.673 Y126.594 E10.01243
G1 X117.023 Y126.868 E10.03589
G1 X116.118 Y127.214 E10.06812
G1 X115.602 Y127.396 E10.08632
G1 X115.13 Y127.548 E10.10281
G1 X114.546 Y127.717 E10.12303
G1 X114.344 Y127.769 E10.12997
G1 X113.047 Y128.015 E10.17387
G1 X112.015 Y128.142 E10.20846
