;FLAVOR:Marlin
M117 Time Left 6h24m31s
;Filament used: 21.3385m
;Layer height: 0.28
;MINX:42.17
;MINY:42.164
;MINZ:0.28
;MAXX:177.823
;MAXY:177.824
;MAXZ:79.8
;POSTPROCESSED
;Generated with Cura_SteamEngine 4.4.1
M140 S60
M105
M190 S60
M104 S205
M105
M109 S205
M82 ;absolute extrusion mode
M201 X500.00 Y500.00 Z100.00 E5000.00 ;Setup machine max acceleration
M203 X500.00 Y500.00 Z10.00 E50.00 ;Setup machine max feedrate
M204 P500.00 R1000.00 T500.00 ;Setup Print/Retract/Travel acceleration
M205 X8.00 Y8.00 Z0.40 E5.00 ;Setup Jerk
M220 S100 ;Reset Feedrate
M221 S100 ;Reset Flowrate

G28 ;Home

G92 E0 ;Reset Extruder
G1 Z2.0 F3000 ;Move Z Axis up
G1 X10.1 Y20 Z0.28 F5000.0 ;Move to start position
G1 X10.1 Y200.0 Z0.28 F1500.0 E15 ;Draw the first line
G1 X10.4 Y200.0 Z0.28 F5000.0 ;Move to side a little
G1 X10.4 Y20 Z0.28 F1500.0 E30 ;Draw the second line
G92 E0 ;Reset Extruder
G1 Z2.0 F3000 ;Move Z Axis up

G92 E0
G92 E0
G1 F1500 E-6
;LAYER_COUNT:285
;LAYER:0
M106 S255
G0 F7500 X50.678 Y50.155 Z0.28
;TYPE:SKIRT
G1 F1500 E0
G1 X50.788 Y50.045 E0.00724
G1 X51.531 Y49.314 E0.05578
G1 X51.764 Y49.092 E0.07076
G1 X53.319 Y47.649 E0.16954
G1 X53.424 Y47.552 E0.1762
G1 X54.226 Y46.827 E0.22654
G1 X54.48 Y46.604 E0.24228
G1 X56.11 Y45.219 E0.34188
G1 X56.218 Y45.129 E0.34843
G1 X56.747 Y44.691 E0.38041
G1 X57.494 Y44.125 E0.42405
G1 X58.287 Y43.623 E0.46775
G1 X59.119 Y43.192 E0.51138
G1 X59.986 Y42.832 E0.55509
G1 X60.88 Y42.548 E0.59877
G1 X61.794 Y42.341 E0.64241
G1 X62.723 Y42.213 E0.68608
G1 X63.66 Y42.164 E0.72977
G1 X64.597 Y42.196 E0.77342
G1 X65.529 Y42.307 E0.81713
G1 X66.447 Y42.497 E0.86078
G1 X67.346 Y42.764 E0.90445
G1 X68.219 Y43.107 E0.94812
G1 X68.731 Y43.35 E0.97451
G1 X69.735 Y43.858 E1.02691
G1 X72.012 Y44.973 E1.14496
G1 X74.32 Y46.022 E1.26301
G1 X76.634 Y46.996 E1.37992
G1 X79.016 Y47.922 E1.49892
G1 X81.333 Y48.745 E1.61341
G1 X83.765 Y49.533 E1.73245
G1 X86.156 Y50.235 E1.84849
G1 X88.594 Y50.876 E1.96587
G1 X91.07 Y51.452 E2.08424
G1 X93.548 Y51.958 E2.20201
G1 X95.99 Y52.38 E2.3174
G1 X98.476 Y52.74 E2.43437
G1 X101 Y53.033 E2.55269
G1 X103.495 Y53.252 E2.66931
G1 X106.01 Y53.401 E2.78662
G1 X108.533 Y53.478 E2.90416
G1 X111.057 Y53.485 E3.02169
G1 X113.544 Y53.42 E3.13753
G1 X116.074 Y53.283 E3.25551
G1 X118.585 Y53.077 E3.37283
G1 X121.079 Y52.8 E3.48967
G1 X123.596 Y52.448 E3.60802
G1 X126.04 Y52.035 E3.72343
G1 X128.552 Y51.538 E3.84267
G1 X130.965 Y50.989 E3.9579
G1 X133.422 Y50.355 E4.07606
G1 X135.83 Y49.662 E4.19273
G1 X138.259 Y48.888 E4.31144
G1 X140.614 Y48.063 E4.42763
G1 X142.949 Y47.17 E4.54404
G1 X145.265 Y46.21 E4.66078
G1 X147.584 Y45.169 E4.77915
G1 X149.87 Y44.064 E4.89737
G1 X150.635 Y43.67 E4.93744
G1 X150.813 Y43.58 E4.94673
G1 X151.377 Y43.302 E4.97601
G1 X152.235 Y42.924 E5.01967
G1 X153.122 Y42.62 E5.06333
G1 X154.032 Y42.393 E5.107
G1 X154.958 Y42.244 E5.15067
G1 X155.893 Y42.174 E5.19433
G1 X156.831 Y42.185 E5.23801
G1 X157.765 Y42.275 E5.28171
G1 X158.687 Y42.445 E5.32536
G1 X159.592 Y42.692 E5.36904
G1 X160.472 Y43.016 E5.41271
G1 X161.321 Y43.413 E5.45635
G1 X162.134 Y43.881 E5.50003
G1 X163.072 Y44.548 E5.55363
G1 X163.337 Y44.758 E5.56937
G1 X163.606 Y44.978 E5.58555
G1 X164.841 Y46.022 E5.66085
G1 X165.018 Y46.175 E5.67175
G1 X166.573 Y47.547 E5.76831
G1 X166.744 Y47.701 E5.77902
G1 X167.446 Y48.347 E5.82345
G1 X167.616 Y48.506 E5.83429
G1 X169.097 Y49.928 E5.92989
G1 X169.262 Y50.091 E5.94069
G1 X169.936 Y50.766 E5.98511
G1 X170.087 Y50.919 E5.99512
G1 X171.485 Y52.375 E6.0891
G1 X171.633 Y52.533 E6.09919
G1 X172.292 Y53.247 E6.14443
G1 X172.453 Y53.426 E6.15564
G1 X173.816 Y54.969 E6.25151
G1 X173.959 Y55.134 E6.26167
G1 X174.788 Y56.111 E6.32134
G1 X174.892 Y56.235 E6.32887
G1 X175.312 Y56.745 E6.35964
G1 X175.877 Y57.494 E6.40332
G1 X176.376 Y58.288 E6.44699
G1 X176.806 Y59.122 E6.49068
G1 X177.162 Y59.989 E6.53432
G1 X177.444 Y60.884 E6.57802
G1 X177.649 Y61.799 E6.62168
G1 X177.775 Y62.728 E6.66534
G1 X177.821 Y63.665 E6.70902
G1 X177.787 Y64.602 E6.75268
G1 X177.674 Y65.533 E6.79635
G1 X177.481 Y66.451 E6.84003
G1 X177.211 Y67.349 E6.88369
G1 X176.721 Y68.532 E6.94332
G1 X176.259 Y69.486 E6.99267
G1 X176.234 Y69.538 E6.99536
G1 X175.054 Y71.943 E7.1201
G1 X174.015 Y74.223 E7.23677
G1 X173.037 Y76.54 E7.35388
G1 X172.113 Y78.908 E7.47224
G1 X171.28 Y81.249 E7.58794
G1 X170.493 Y83.669 E7.70643
G1 X169.787 Y86.064 E7.8227
G1 X169.141 Y88.511 E7.94055
G1 X168.563 Y90.984 E8.0588
G1 X168.06 Y93.44 E8.17554
G1 X167.634 Y95.88 E8.29087
G1 X167.267 Y98.403 E8.40959
G1 X166.976 Y100.881 E8.52577
G1 X166.752 Y103.406 E8.64381
G1 X166.603 Y105.891 E8.75973
G1 X166.522 Y108.44 E8.87848
G1 X166.514 Y110.935 E8.99466
G1 X166.576 Y113.459 E9.11222
G1 X166.71 Y115.975 E9.22954
G1 X166.916 Y118.506 E9.34778
G1 X167.186 Y120.963 E9.46288
G1 X167.54 Y123.512 E9.58271
G1 X167.949 Y125.949 E9.69778
G1 X168.439 Y128.441 E9.81604
G1 X168.994 Y130.888 E9.93287
G1 X169.615 Y133.308 E10.04921
G1 X170.314 Y135.744 E10.16722
G1 X171.075 Y138.142 E10.28437
G1 X171.907 Y140.524 E10.40185
G1 X172.788 Y142.834 E10.51697
G1 X173.766 Y145.2 E10.63619
G1 X174.8 Y147.509 E10.75399
G1 X175.888 Y149.769 E10.87079
G1 X176.342 Y150.649 E10.91689
G1 X176.417 Y150.798 E10.92466
G1 X176.682 Y151.332 E10.95242
G1 X177.063 Y152.189 E10.99609
G1 X177.369 Y153.076 E11.03978
G1 X177.599 Y153.985 E11.08344
G1 X177.751 Y154.911 E11.12714
G1 X177.823 Y155.846 E11.17081
G1 X177.815 Y156.784 E11.21448
G1 X177.727 Y157.717 E11.25812
G1 X177.56 Y158.64 E11.3018
G1 X177.315 Y159.546 E11.3455
G1 X176.994 Y160.427 E11.38916
G1 X176.599 Y161.277 E11.43281
G1 X176.132 Y162.091 E11.4765
G1 X175.735 Y162.679 E11.50954
G1 X175.561 Y162.919 E11.52334
G1 X175.063 Y163.554 E11.56092
G1 X173.775 Y165.081 E11.65394
G1 X173.665 Y165.21 E11.66183
G1 X172.974 Y166.004 E11.71085
G1 X172.766 Y166.236 E11.72536
G1 X171.667 Y167.429 E11.80089
G1 X171.516 Y167.59 E11.81116
G1 X170.083 Y169.084 E11.90756
G1 X169.922 Y169.248 E11.91826
G1 X169.256 Y169.914 E11.96212
G1 X169.099 Y170.068 E11.97236
G1 X167.618 Y171.491 E12.06799
G1 X167.443 Y171.656 E12.07919
G1 X166.709 Y172.331 E12.12563
G1 X166.551 Y172.473 E12.13552
G1 X165.061 Y173.791 E12.22815
G1 X164.887 Y173.942 E12.23887
G1 X163.901 Y174.778 E12.29907
G1 X163.781 Y174.878 E12.30634
G1 X163.259 Y175.308 E12.33783
G1 X162.51 Y175.873 E12.38152
G1 X161.716 Y176.372 E12.42519
G1 X160.883 Y176.802 E12.46884
G1 X160.015 Y177.159 E12.51254
G1 X159.121 Y177.441 E12.55619
G1 X158.206 Y177.645 E12.59984
G1 X157.276 Y177.771 E12.64354
G1 X156.339 Y177.818 E12.68723
G1 X155.402 Y177.784 E12.73089
G1 X154.471 Y177.671 E12.77456
G1 X153.553 Y177.478 E12.81824
G1 X152.655 Y177.209 E12.86189
G1 X151.472 Y176.719 E12.92151
G1 X150.501 Y176.249 E12.97174
G1 X150.453 Y176.225 E12.97424
G1 X148.057 Y175.051 E13.09848
G1 X145.762 Y174.005 E13.21593
G1 X143.442 Y173.025 E13.3332
G1 X141.084 Y172.107 E13.45102
G1 X138.715 Y171.263 E13.56812
G1 X136.342 Y170.492 E13.68431
G1 X133.911 Y169.776 E13.80231
G1 X131.486 Y169.137 E13.91909
G1 X129 Y168.556 E14.03796
G1 X126.568 Y168.058 E14.15356
G1 X124.086 Y167.627 E14.27086
G1 X121.577 Y167.261 E14.38892
G1 X119.098 Y166.971 E14.50514
G1 X116.583 Y166.748 E14.62271
G1 X114.071 Y166.598 E14.73989
G1 X111.574 Y166.519 E14.85622
G1 X109.051 Y166.511 E14.9737
G1 X106.5 Y166.574 E15.09252
G1 X104.039 Y166.705 E15.20728
G1 X101.492 Y166.913 E15.32627
G1 X98.997 Y167.188 E15.44315
G1 X96.49 Y167.537 E15.56102
G1 X94.023 Y167.951 E15.6775
G1 X91.557 Y168.437 E15.79453
G1 X89.11 Y168.992 E15.91137
G1 X86.656 Y169.623 E16.02936
G1 X84.237 Y170.316 E16.14653
G1 X81.861 Y171.072 E16.26263
G1 X79.448 Y171.915 E16.38165
G1 X77.167 Y172.785 E16.49532
G1 X74.765 Y173.779 E16.61637
G1 X72.501 Y174.793 E16.73188
G1 X70.217 Y175.894 E16.84994
G1 X69.366 Y176.332 E16.89451
G1 X69.197 Y176.417 E16.90332
G1 X68.638 Y176.693 E16.93235
G1 X67.78 Y177.072 E16.97603
G1 X66.893 Y177.377 E17.0197
G1 X65.983 Y177.605 E17.06338
G1 X65.057 Y177.754 E17.10706
G1 X64.122 Y177.824 E17.15072
G1 X63.184 Y177.814 E17.1944
G1 X62.251 Y177.725 E17.23804
G1 X61.328 Y177.556 E17.28173
G1 X60.423 Y177.309 E17.32541
G1 X59.543 Y176.986 E17.36906
G1 X58.693 Y176.589 E17.41275
G1 X57.88 Y176.122 E17.4564
G1 X56.932 Y175.448 E17.51057
G1 X56.666 Y175.237 E17.52638
G1 X56.396 Y175.016 E17.54262
G1 X54.789 Y173.656 E17.64065
G1 X54.671 Y173.554 E17.64791
G1 X53.904 Y172.886 E17.69528
G1 X53.654 Y172.662 E17.71091
G1 X52.058 Y171.184 E17.81219
G1 X51.939 Y171.072 E17.8198
G1 X51.2 Y170.367 E17.86736
G1 X50.967 Y170.138 E17.88257
G1 X49.432 Y168.584 E17.98428
G1 X49.322 Y168.471 E17.99163
G1 X48.628 Y167.748 E18.03829
G1 X48.414 Y167.518 E18.05292
G1 X46.961 Y165.915 E18.15366
G1 X46.858 Y165.8 E18.16085
G1 X46.206 Y165.06 E18.20678
G1 X45.999 Y164.819 E18.22157
G1 X45.148 Y163.795 E18.28357
G1 X45.046 Y163.67 E18.29108
G1 X44.608 Y163.127 E18.32357
G1 X44.051 Y162.373 E18.36722
G1 X43.56 Y161.574 E18.41088
G1 X43.139 Y160.736 E18.45455
G1 X42.791 Y159.865 E18.49823
G1 X42.518 Y158.967 E18.54193
G1 X42.323 Y158.05 E18.58559
G1 X42.207 Y157.119 E18.62927
G1 X42.17 Y156.182 E18.67294
G1 X42.213 Y155.245 E18.71661
G1 X42.336 Y154.316 E18.76025
G1 X42.538 Y153.4 E18.80393
G1 X42.817 Y152.504 E18.84762
G1 X43.348 Y151.268 E18.91026
G1 X44.515 Y148.954 E19.03094
G1 X45.59 Y146.663 E19.14878
G1 X46.598 Y144.35 E19.26627
G1 X47.545 Y141.999 E19.38429
G1 X48.407 Y139.66 E19.50036
G1 X49.204 Y137.299 E19.61639
G1 X49.954 Y134.852 E19.73557
G1 X50.615 Y132.456 E19.8513
G1 X51.218 Y130.002 E19.96897
G1 X51.755 Y127.522 E20.08713
G1 X52.212 Y125.058 E20.20382
G1 X52.604 Y122.569 E20.32114
G1 X52.92 Y120.111 E20.43654
G1 X53.174 Y117.56 E20.55591
G1 X53.351 Y115.08 E20.67169
G1 X53.46 Y112.55 E20.7896
G1 X53.497 Y110.034 E20.90677
G1 X53.462 Y107.502 E21.02468
G1 X53.359 Y105.027 E21.14003
G1 X53.18 Y102.493 E21.25832
G1 X52.931 Y99.975 E21.37614
G1 X52.616 Y97.497 E21.49245
G1 X52.228 Y95.015 E21.60943
G1 X51.76 Y92.496 E21.72873
G1 X51.241 Y90.08 E21.8438
G1 X50.649 Y87.66 E21.9598
G1 X49.97 Y85.189 E22.07913
G1 X49.234 Y82.775 E22.19664
G1 X48.433 Y80.4 E22.31335
G1 X47.562 Y78.035 E22.43071
G1 X46.627 Y75.705 E22.54761
G1 X45.63 Y73.41 E22.66413
G1 X44.56 Y71.123 E22.7817
G1 X43.997 Y70.015 E22.83957
G1 X43.949 Y69.919 E22.84457
G1 X43.326 Y68.663 E22.90985
G1 X42.945 Y67.806 E22.95352
G1 X42.639 Y66.919 E22.99721
G1 X42.409 Y66.01 E23.04087
G1 X42.258 Y65.084 E23.08456
G1 X42.186 Y64.149 E23.12823
G1 X42.194 Y63.211 E23.17191
G1 X42.282 Y62.278 E23.21554
G1 X42.45 Y61.355 E23.25923
G1 X42.695 Y60.45 E23.30289
G1 X43.016 Y59.568 E23.34659
G1 X43.411 Y58.718 E23.39024
G1 X43.878 Y57.904 E23.43393
G1 X44.59 Y56.903 E23.49113
G1 X45.178 Y56.168 E23.53496
G1 X45.311 Y56.006 E23.54472
G1 X45.761 Y55.465 E23.57749
G1 X45.87 Y55.336 E23.58535
G1 X46.541 Y54.554 E23.63333
G1 X46.736 Y54.332 E23.64709
G1 X48.149 Y52.772 E23.7451
G1 X48.257 Y52.655 E23.75251
G1 X48.975 Y51.885 E23.80154
G1 X49.195 Y51.656 E23.81632
G1 X50.278 Y50.56 E23.88807
G0 F1350 X50.678 Y50.155
G0 F7500 X50.963 Y50.436
G1 F1500 X51.069 Y50.33 E23.89505
G1 X51.812 Y49.599 E23.94359
G1 X52.036 Y49.385 E23.95801
G1 X53.591 Y47.942 E24.05679
G1 X53.693 Y47.849 E24.06322
G1 X54.495 Y47.124 E24.11356
G1 X54.739 Y46.909 E24.1287
G1 X56.369 Y45.524 E24.2283
G1 X56.473 Y45.437 E24.23462
G1 X57.002 Y44.999 E24.2666
G1 X57.736 Y44.444 E24.30944
G1 X58.515 Y43.954 E24.3523
G1 X59.334 Y43.533 E24.39518
G1 X60.187 Y43.185 E24.43807
G1 X61.066 Y42.913 E24.48092
G1 X61.966 Y42.717 E24.52381
G1 X62.879 Y42.601 E24.56666
G1 X63.799 Y42.564 E24.60954
G1 X64.719 Y42.607 E24.65242
G1 X65.631 Y42.73 E24.69527
G1 X66.529 Y42.932 E24.73813
G1 X67.407 Y43.21 E24.78102
G1 X68.55 Y43.707 E24.83905
G1 X69.528 Y44.202 E24.8901
G1 X71.836 Y45.332 E25.00975
G1 X74.155 Y46.386 E25.12837
G1 X76.513 Y47.379 E25.2475
G1 X78.874 Y48.296 E25.36544
G1 X81.213 Y49.127 E25.48103
G1 X83.644 Y49.915 E25.60002
G1 X86.047 Y50.62 E25.71663
G1 X88.507 Y51.267 E25.83508
G1 X90.971 Y51.84 E25.95287
G1 X93.465 Y52.349 E26.0714
G1 X95.937 Y52.776 E26.18821
G1 X98.444 Y53.14 E26.30617
G1 X100.955 Y53.431 E26.42387
G1 X103.435 Y53.649 E26.5398
G1 X106.01 Y53.801 E26.65991
G1 X108.52 Y53.878 E26.77684
G1 X111.066 Y53.885 E26.89539
G1 X113.577 Y53.82 E27.01236
G1 X116.093 Y53.684 E27.12968
G1 X118.626 Y53.475 E27.24803
G1 X121.112 Y53.199 E27.3645
G1 X123.647 Y52.844 E27.48369
G1 X126.148 Y52.422 E27.60179
G1 X128.614 Y51.934 E27.71885
G1 X131.048 Y51.38 E27.83508
G1 X133.551 Y50.735 E27.95544
G1 X135.935 Y50.049 E28.07096
G1 X138.365 Y49.274 E28.18972
G1 X140.753 Y48.438 E28.30753
G1 X143.096 Y47.542 E28.42434
G1 X145.445 Y46.568 E28.54275
G1 X147.772 Y45.523 E28.66153
G1 X150.033 Y44.431 E28.77845
G1 X150.818 Y44.026 E28.81958
G1 X150.99 Y43.939 E28.82855
G1 X151.554 Y43.661 E28.85783
G1 X152.396 Y43.29 E28.90068
G1 X153.268 Y42.994 E28.94356
G1 X154.162 Y42.775 E28.98641
G1 X155.072 Y42.634 E29.02929
G1 X155.99 Y42.572 E29.07214
G1 X156.911 Y42.59 E29.11503
G1 X157.826 Y42.688 E29.15788
G1 X158.73 Y42.866 E29.20078
G1 X159.614 Y43.12 E29.24361
G1 X160.474 Y43.451 E29.28652
G1 X161.301 Y43.855 E29.32938
G1 X162.09 Y44.329 E29.37224
G1 X162.823 Y44.861 E29.41441
G1 X163.088 Y45.071 E29.43016
G1 X163.348 Y45.284 E29.44581
G1 X164.583 Y46.328 E29.52111
G1 X164.753 Y46.475 E29.53157
G1 X166.308 Y47.847 E29.62813
G1 X166.473 Y47.995 E29.63846
G1 X167.175 Y48.641 E29.68288
G1 X167.338 Y48.795 E29.69332
G1 X168.819 Y50.217 E29.78892
G1 X168.979 Y50.373 E29.79933
G1 X169.653 Y51.048 E29.84375
G1 X169.798 Y51.197 E29.85343
G1 X171.196 Y52.653 E29.94742
G1 X171.339 Y52.805 E29.95713
G1 X171.998 Y53.519 E30.00238
G1 X172.153 Y53.69 E30.01312
G1 X173.516 Y55.233 E30.10899
G1 X173.654 Y55.393 E30.11883
G1 X174.483 Y56.37 E30.17849
G1 X174.583 Y56.49 E30.18577
G1 X175.003 Y57 E30.21653
G1 X175.557 Y57.735 E30.25939
G1 X176.045 Y58.516 E30.30227
G1 X176.464 Y59.336 E30.34515
G1 X176.809 Y60.189 E30.38799
G1 X177.08 Y61.069 E30.43087
G1 X177.272 Y61.969 E30.47372
G1 X177.386 Y62.883 E30.51661
G1 X177.421 Y63.803 E30.55948
G1 X177.375 Y64.722 E30.60232
G1 X177.25 Y65.635 E30.64523
G1 X177.046 Y66.532 E30.68807
G1 X176.765 Y67.409 E30.73095
G1 X176.361 Y68.358 E30.77898
G1 X175.899 Y69.312 E30.82834
G1 X175.875 Y69.362 E30.83092
G1 X174.689 Y71.78 E30.95632
G1 X173.66 Y74.038 E31.07187
G1 X172.654 Y76.418 E31.19219
G1 X171.739 Y78.765 E31.30948
G1 X170.894 Y81.139 E31.42682
G1 X170.114 Y83.537 E31.54424
G1 X169.402 Y85.954 E31.66157
G1 X168.748 Y88.431 E31.78086
G1 X168.184 Y90.842 E31.89616
G1 X167.663 Y93.39 E32.01726
G1 X167.237 Y95.83 E32.13259
G1 X166.872 Y98.335 E32.25047
G1 X166.58 Y100.832 E32.36753
G1 X166.353 Y103.383 E32.48678
G1 X166.202 Y105.889 E32.60369
G1 X166.122 Y108.427 E32.72192
G1 X166.114 Y110.943 E32.83908
G1 X166.177 Y113.489 E32.95767
G1 X166.31 Y115.995 E33.07452
G1 X166.515 Y118.511 E33.19207
G1 X166.795 Y121.06 E33.31147
G1 X167.138 Y123.527 E33.42745
G1 X167.557 Y126.027 E33.54549
G1 X168.049 Y128.528 E33.66418
G1 X168.604 Y130.979 E33.78119
G1 X169.236 Y133.437 E33.89937
G1 X169.924 Y135.838 E34.01567
G1 X170.699 Y138.279 E34.13493
G1 X171.528 Y140.651 E34.25193
G1 X172.42 Y142.993 E34.36862
G1 X173.402 Y145.367 E34.48825
G1 X174.418 Y147.638 E34.6041
G1 X175.545 Y149.976 E34.72495
G1 X175.986 Y150.832 E34.76979
G1 X176.059 Y150.976 E34.77731
G1 X176.324 Y151.51 E34.80507
G1 X176.697 Y152.352 E34.84795
G1 X176.996 Y153.223 E34.89083
G1 X177.218 Y154.116 E34.93368
G1 X177.361 Y155.025 E34.97652
G1 X177.425 Y155.944 E35.01942
G1 X177.41 Y156.864 E35.06226
G1 X177.314 Y157.78 E35.10515
G1 X177.139 Y158.684 E35.14803
G1 X176.887 Y159.569 E35.19087
G1 X176.558 Y160.429 E35.23375
G1 X176.156 Y161.258 E35.27665
G1 X175.684 Y162.048 E35.3195
G1 X175.411 Y162.444 E35.3419
G1 X175.237 Y162.684 E35.3557
G1 X174.758 Y163.296 E35.39189
G1 X173.47 Y164.823 E35.48491
G1 X173.363 Y164.948 E35.49257
G1 X172.672 Y165.742 E35.54158
G1 X172.472 Y165.965 E35.55553
G1 X171.373 Y167.158 E35.63106
G1 X171.227 Y167.314 E35.64101
G1 X169.794 Y168.808 E35.73741
G1 X169.639 Y168.965 E35.74768
