;FLAVOR:Marlin
M117 Time Left 1h03m31s
;Filament used: 3.694m
;Layer height: 0.28
;MINX:69.021
;MINY:87.062
;MINZ:0.28
;MAXX:150.975
;MAXY:131.023
;MAXZ:66.92
;POSTPROCESSED
;Generated with Cura_SteamEngine 4.4.1
M140 S60
M105
M190 S60
M104 S205
M105
M109 S205
M82 ;absolute extrusion mode
M201 X500.00 Y500.00 Z100.00 E5000.00 ;Setup machine max acceleration
M203 X500.00 Y500.00 Z10.00 E50.00 ;Setup machine max feedrate
M204 P500.00 R1000.00 T500.00 ;Setup Print/Retract/Travel acceleration
M205 X8.00 Y8.00 Z0.40 E5.00 ;Setup Jerk
M220 S100 ;Reset Feedrate
M221 S100 ;Reset Flowrate

G28 ;Home

G92 E0 ;Reset Extruder
G1 Z2.0 F3000 ;Move Z Axis up
G1 X10.1 Y20 Z0.28 F5000.0 ;Move to start position
G1 X10.1 Y200.0 Z0.28 F1500.0 E15 ;Draw the first line
G1 X10.4 Y200.0 Z0.28 F5000.0 ;Move to side a little
G1 X10.4 Y20 Z0.28 F1500.0 E30 ;Draw the second line
G92 E0 ;Reset Extruder
G1 Z2.0 F3000 ;Move Z Axis up

G92 E0
G92 E0
G1 F1500 E-6
;LAYER_COUNT:239
;LAYER:0
M106 S255
G0 F7500 X74.546 Y89.815 Z0.28
;TYPE:SKIRT
G1 F1500 E0
G1 X75.308 Y89.269 E0.04365
G1 X76.115 Y88.79 E0.08735
G1 X76.959 Y88.381 E0.13102
G1 X77.835 Y88.046 E0.17469
G1 X78.736 Y87.786 E0.21836
G1 X79.656 Y87.605 E0.26202
G1 X80.588 Y87.502 E0.30568
G1 X81.526 Y87.479 E0.34937
G1 X82.462 Y87.536 E0.39303
G1 X83.39 Y87.672 E0.43671
G1 X84.242 Y87.871 E0.47745
G1 X86.08 Y88.376 E0.56621
G1 X88.63 Y89.027 E0.68875
G1 X91.023 Y89.561 E0.80292
G1 X93.512 Y90.046 E0.921
G1 X95.999 Y90.459 E1.03839
G1 X98.519 Y90.803 E1.15682
G1 X101.003 Y91.072 E1.27316
G1 X103.481 Y91.269 E1.38891
G1 X106.035 Y91.399 E1.50799
G1 X108.527 Y91.455 E1.62406
G1 X111.049 Y91.442 E1.74149
G1 X113.579 Y91.356 E1.85937
G1 X116.08 Y91.201 E1.97605
G1 X118.579 Y90.974 E2.09289
G1 X121.089 Y90.674 E2.2106
G1 X123.584 Y90.305 E2.32804
G1 X126.063 Y89.866 E2.44527
G1 X128.508 Y89.362 E2.56151
G1 X130.981 Y88.779 E2.67982
G1 X133.399 Y88.135 E2.79634
G1 X134.662 Y87.759 E2.8577
G1 X134.797 Y87.72 E2.86425
G1 X135.65 Y87.478 E2.90553
G1 X136.562 Y87.26 E2.9492
G1 X137.49 Y87.122 E2.99288
G1 X138.426 Y87.062 E3.03656
G1 X139.363 Y87.083 E3.0802
G1 X140.296 Y87.184 E3.1239
G1 X141.216 Y87.363 E3.16754
G1 X142.118 Y87.62 E3.21121
G1 X142.995 Y87.954 E3.25491
G1 X143.84 Y88.36 E3.29856
G1 X144.647 Y88.837 E3.34221
G1 X145.411 Y89.382 E3.38591
G1 X146.126 Y89.989 E3.42958
G1 X146.66 Y90.519 E3.46462
G1 X147.031 Y90.913 E3.48982
G1 X147.16 Y91.052 E3.49865
G1 X147.654 Y91.595 E3.53283
G1 X147.778 Y91.734 E3.5415
G1 X148.244 Y92.264 E3.57437
G1 X148.833 Y92.994 E3.61804
G1 X149.357 Y93.771 E3.66168
G1 X149.813 Y94.591 E3.70537
G1 X150.198 Y95.446 E3.74903
G1 X150.508 Y96.331 E3.7927
G1 X150.742 Y97.239 E3.83636
G1 X150.898 Y98.164 E3.88004
G1 X150.975 Y99.099 E3.92372
G1 X150.971 Y100.037 E3.9674
G1 X150.888 Y100.971 E4.01106
G1 X150.725 Y101.895 E4.05475
G1 X150.484 Y102.801 E4.09841
G1 X150.167 Y103.684 E4.14209
G1 X149.776 Y104.536 E4.18574
G1 X149.314 Y105.352 E4.22941
G1 X149.053 Y105.75 E4.25157
G1 X148.648 Y106.341 E4.28493
G1 X147.134 Y108.589 E4.41113
G1 X145.813 Y110.675 E4.5261
G1 X144.53 Y112.834 E4.64305
G1 X143.3 Y115.046 E4.7609
G1 X142.136 Y117.283 E4.87832
G1 X141.035 Y119.556 E4.99593
G1 X140.054 Y121.731 E5.10703
G1 X139.76 Y122.406 E5.14131
G1 X139.35 Y123.249 E5.18496
G1 X138.789 Y124.174 E5.23534
G1 X138.637 Y124.399 E5.24798
G1 X138.079 Y125.153 E5.29166
G1 X137.459 Y125.857 E5.33534
G1 X136.782 Y126.505 E5.37898
G1 X136.052 Y127.093 E5.42262
G1 X135.274 Y127.617 E5.4663
G1 X134.454 Y128.073 E5.50999
G1 X133.599 Y128.458 E5.55365
G1 X132.763 Y128.753 E5.59493
G1 X132.39 Y128.868 E5.61311
G1 X131.498 Y129.102 E5.65605
G1 X129.609 Y129.515 E5.74609
G1 X129.396 Y129.56 E5.75622
G1 X128.047 Y129.827 E5.82026
G1 X127.9 Y129.855 E5.82723
G1 X126.475 Y130.117 E5.89469
G1 X126.294 Y130.148 E5.90324
G1 X125.268 Y130.319 E5.95168
G1 X125.055 Y130.353 E5.96172
G1 X123.376 Y130.599 E6.04074
G1 X122.98 Y130.649 E6.05932
G1 X121.913 Y130.766 E6.1093
G1 X121.563 Y130.799 E6.12567
G1 X121.046 Y130.839 E6.14982
G1 X120.108 Y130.872 E6.19352
G1 X119.331 Y130.838 E6.22974
G1 X116.691 Y130.629 E6.35305
G1 X114.154 Y130.5 E6.47134
G1 X111.673 Y130.445 E6.58689
G1 X109.144 Y130.459 E6.70465
G1 X106.623 Y130.545 E6.82211
G1 X104.093 Y130.702 E6.94015
G1 X101.696 Y130.918 E7.05221
G1 X101.217 Y130.967 E7.07463
G1 X100.281 Y131.023 E7.11829
G1 X99.485 Y131.008 E7.15537
G1 X98.958 Y130.979 E7.17994
G1 X98.585 Y130.953 E7.19735
G1 X97.845 Y130.887 E7.23195
G1 X97.342 Y130.83 E7.25552
G1 X95.243 Y130.545 E7.35415
G1 X95.062 Y130.519 E7.36267
G1 X94.113 Y130.374 E7.40737
G1 X93.945 Y130.347 E7.41529
G1 X92.397 Y130.086 E7.48839
G1 X92.226 Y130.056 E7.49648
G1 X90.939 Y129.818 E7.55742
G1 X90.747 Y129.78 E7.56654
G1 X89.173 Y129.46 E7.64133
G1 X89.026 Y129.43 E7.64831
G1 X88.548 Y129.326 E7.67109
G1 X88.501 Y129.315 E7.67334
G1 X88.366 Y129.285 E7.67978
G1 X87.46 Y129.043 E7.72344
G1 X86.578 Y128.724 E7.76712
G1 X85.726 Y128.332 E7.81079
G1 X84.911 Y127.868 E7.85446
G1 X84.138 Y127.336 E7.89815
G1 X83.413 Y126.741 E7.94182
G1 X82.742 Y126.086 E7.98549
G1 X82.129 Y125.376 E8.02916
G1 X81.537 Y124.553 E8.07637
G1 X81.391 Y124.329 E8.08882
G1 X80.912 Y123.523 E8.13248
G1 X80.616 Y122.927 E8.16347
G1 X79.485 Y120.473 E8.28929
G1 X78.355 Y118.193 E8.40778
G1 X77.183 Y115.986 E8.52414
G1 X75.938 Y113.793 E8.64156
G1 X74.643 Y111.658 E8.75783
G1 X73.268 Y109.527 E8.87592
G1 X71.813 Y107.407 E8.99565
G1 X71.074 Y106.375 E9.05476
G1 X70.561 Y105.59 E9.09842
G1 X70.117 Y104.764 E9.14209
G1 X69.745 Y103.903 E9.18576
G1 X69.447 Y103.014 E9.22942
G1 X69.226 Y102.102 E9.27312
G1 X69.084 Y101.175 E9.31679
G1 X69.021 Y100.24 E9.36042
G1 X69.038 Y99.302 E9.40411
G1 X69.135 Y98.369 E9.44779
G1 X69.311 Y97.448 E9.49145
G1 X69.565 Y96.545 E9.53513
G1 X69.895 Y95.667 E9.5788
G1 X70.298 Y94.82 E9.62248
G1 X70.772 Y94.011 E9.66614
G1 X71.314 Y93.245 E9.70983
G1 X71.635 Y92.849 E9.73357
G1 X72.217 Y92.164 E9.77542
G1 X72.35 Y92.01 E9.7849
G1 X72.604 Y91.722 E9.80278
G1 X72.702 Y91.613 E9.80961
G1 X73.174 Y91.092 E9.84234
G1 X73.833 Y90.424 E9.88603
G1 X74.113 Y90.185 E9.90318
G0 F1350 X74.546 Y89.815
G0 F7500 X74.819 Y90.109
G1 F1500 X75.57 Y89.576 E9.94606
G1 X76.364 Y89.11 E9.98893
G1 X77.195 Y88.715 E10.03177
G1 X78.058 Y88.393 E10.07466
G1 X78.945 Y88.148 E10.11751
G1 X79.85 Y87.98 E10.16037
G1 X80.767 Y87.892 E10.20327
G1 X81.687 Y87.883 E10.24611
G1 X82.605 Y87.954 E10.28898
G1 X83.514 Y88.105 E10.33189
G1 X84.136 Y88.256 E10.36169
G1 X86.035 Y88.778 E10.4534
G1 X88.51 Y89.409 E10.57233
G1 X90.966 Y89.958 E10.68952
G1 X93.442 Y90.44 E10.80697
G1 X95.951 Y90.857 E10.9254
G1 X98.424 Y91.195 E11.04163
G1 X100.965 Y91.469 E11.16063
G1 X103.498 Y91.671 E11.27896
G1 X106.006 Y91.798 E11.39589
G1 X108.52 Y91.855 E11.51298
G1 X111.064 Y91.842 E11.63144
G1 X113.583 Y91.756 E11.7488
G1 X116.143 Y91.598 E11.86824
G1 X118.623 Y91.372 E11.98419
G1 X121.123 Y91.074 E12.10143
G1 X123.641 Y90.701 E12.21996
G1 X126.149 Y90.257 E12.33856
G1 X128.567 Y89.758 E12.45352
G1 X131.078 Y89.167 E12.57364
G1 X133.511 Y88.518 E12.69089
G1 X134.776 Y88.142 E12.75234
G1 X134.906 Y88.104 E12.75865
G1 X135.759 Y87.862 E12.79993
G1 X136.655 Y87.65 E12.84281
G1 X137.566 Y87.516 E12.88568
G1 X138.485 Y87.461 E12.92855
G1 X139.405 Y87.487 E12.97141
G1 X140.319 Y87.592 E13.01425
G1 X141.222 Y87.776 E13.05716
G1 X142.104 Y88.038 E13.1
G1 X142.961 Y88.375 E13.14288
G1 X143.785 Y88.786 E13.18576
G1 X144.57 Y89.266 E13.2286
G1 X145.311 Y89.813 E13.27149
G1 X146.002 Y90.422 E13.31438
G1 X146.369 Y90.793 E13.33868
G1 X146.74 Y91.187 E13.36388
G1 X146.864 Y91.321 E13.37238
G1 X147.358 Y91.864 E13.40656
G1 X147.478 Y91.998 E13.41494
G1 X147.944 Y92.528 E13.4478
G1 X148.521 Y93.245 E13.49066
G1 X149.034 Y94.009 E13.53351
G1 X149.478 Y94.816 E13.5764
G1 X149.851 Y95.657 E13.61923
G1 X150.15 Y96.528 E13.66212
G1 X150.372 Y97.422 E13.70501
G1 X150.515 Y98.331 E13.74786
G1 X150.579 Y99.25 E13.79075
G1 X150.563 Y100.17 E13.8336
G1 X150.468 Y101.086 E13.87648
G1 X150.293 Y101.99 E13.91935
G1 X150.04 Y102.875 E13.96221
G1 X149.712 Y103.735 E14.00507
G1 X149.31 Y104.563 E14.04793
G1 X148.724 Y105.524 E14.10034
G1 X148.265 Y106.193 E14.13812
G1 X146.825 Y108.331 E14.25815
G1 X145.459 Y110.488 E14.37704
G1 X144.187 Y112.63 E14.49304
G1 X142.938 Y114.873 E14.61258
G1 X141.779 Y117.102 E14.72957
G1 X140.681 Y119.369 E14.84686
G1 X139.655 Y121.643 E14.96302
G1 X139.393 Y122.246 E14.99364
G1 X138.99 Y123.073 E15.03648
G1 X138.458 Y123.95 E15.08424
G1 X138.306 Y124.175 E15.09688
G1 X137.758 Y124.915 E15.13976
G1 X137.147 Y125.604 E15.18264
G1 X136.48 Y126.238 E15.22549
G1 X135.76 Y126.811 E15.26834
G1 X134.992 Y127.32 E15.31124
G1 X134.184 Y127.761 E15.3541
G1 X133.34 Y128.129 E15.39698
G1 X132.645 Y128.37 E15.43123
G1 X132.272 Y128.485 E15.4494
G1 X131.413 Y128.711 E15.49076
G1 X129.524 Y129.124 E15.5808
G1 X129.318 Y129.167 E15.5906
G1 X127.969 Y129.434 E15.65463
G1 X127.828 Y129.461 E15.66132
G1 X126.403 Y129.723 E15.72878
G1 X126.229 Y129.754 E15.73701
G1 X125.203 Y129.925 E15.78545
G1 X124.997 Y129.957 E15.79516
G1 X123.318 Y130.203 E15.87417
G1 X122.936 Y130.252 E15.8921
G1 X121.869 Y130.369 E15.94209
G1 X121.532 Y130.4 E15.95784
G1 X121.015 Y130.44 E15.98199
G1 X120.095 Y130.472 E16.02486
G1 X119.362 Y130.439 E16.05902
G1 X116.706 Y130.229 E16.18308
G1 X114.182 Y130.101 E16.30076
G1 X111.679 Y130.045 E16.41734
G1 X109.129 Y130.059 E16.53608
G1 X106.584 Y130.146 E16.65466
G1 X104.108 Y130.3 E16.77017
G1 X101.615 Y130.524 E16.88672
G1 X101.176 Y130.569 E16.90727
G1 X100.257 Y130.624 E16.95014
G1 X99.507 Y130.609 E16.98507
G1 X98.98 Y130.58 E17.00965
G1 X98.62 Y130.554 E17.02646
G1 X97.88 Y130.488 E17.06105
G1 X97.396 Y130.434 E17.08373
G1 X95.297 Y130.149 E17.18236
G1 X95.122 Y130.123 E17.1906
G1 X94.173 Y129.978 E17.2353
G1 X94.012 Y129.952 E17.2429
G1 X92.464 Y129.691 E17.31599
G1 X92.298 Y129.662 E17.32384
G1 X91.011 Y129.424 E17.38479
G1 X90.827 Y129.389 E17.39351
G1 X89.253 Y129.069 E17.4683
G1 X89.111 Y129.039 E17.47506
G1 X88.633 Y128.935 E17.49783
G1 X88.453 Y128.895 E17.50642
G1 X87.563 Y128.656 E17.54933
G1 X86.698 Y128.341 E17.5922
G1 X85.864 Y127.953 E17.63503
G1 X85.066 Y127.493 E17.67792
G1 X84.311 Y126.966 E17.72079
G1 X83.605 Y126.375 E17.76366
G1 X82.953 Y125.725 E17.80653
G1 X82.359 Y125.022 E17.84939
G1 X81.872 Y124.335 E17.8886
G1 X81.726 Y124.111 E17.90105
G1 X81.257 Y123.319 E17.94391
G1 X80.979 Y122.76 E17.97298
G1 X79.829 Y120.264 E18.10095
G1 X78.731 Y118.049 E18.21606
G1 X77.519 Y115.765 E18.33646
G1 X76.285 Y113.594 E18.45274
G1 X74.973 Y111.43 E18.57058
G1 X73.608 Y109.313 E18.68787
G1 X72.136 Y107.17 E18.80893
G1 X71.4 Y106.142 E18.8678
G1 X70.897 Y105.371 E18.91067
G1 X70.463 Y104.559 E18.95354
G1 X70.1 Y103.713 E18.99641
G1 X69.813 Y102.838 E19.03929
G1 X69.603 Y101.942 E19.08214
G1 X69.471 Y101.031 E19.125
G1 X69.419 Y100.111 E19.16791
G1 X69.447 Y99.191 E19.21077
G1 X69.554 Y98.277 E19.25362
G1 X69.741 Y97.375 E19.29651
G1 X70.005 Y96.493 E19.33938
G1 X70.344 Y95.638 E19.38221
G1 X70.757 Y94.815 E19.42509
G1 X71.239 Y94.03 E19.46798
G1 X71.94 Y93.108 E19.52191
G1 X72.522 Y92.423 E19.56377
G1 X72.65 Y92.275 E19.57288
G1 X72.904 Y91.987 E19.59076
G1 X72.998 Y91.881 E19.59736
G1 X73.47 Y91.36 E19.63009
G1 X74.118 Y90.705 E19.673
G1 X74.385 Y90.478 E19.68931
G0 F1350 X74.819 Y90.109
G0 F7500 X75.092 Y90.404
G1 F1500 X75.83 Y89.884 E19.73135
G1 X76.612 Y89.432 E19.77341
G1 X77.431 Y89.05 E19.81549
G1 X78.28 Y88.743 E19.85753
G1 X79.153 Y88.511 E19.89959
G1 X80.043 Y88.358 E19.94164
G1 X80.943 Y88.284 E19.98369
G1 X81.846 Y88.29 E20.02574
G1 X82.745 Y88.376 E20.06779
G1 X84.03 Y88.642 E20.12889
G1 X85.89 Y89.153 E20.21871
G1 X88.421 Y89.799 E20.34034
G1 X90.881 Y90.348 E20.45771
G1 X93.406 Y90.84 E20.5775
G1 X95.867 Y91.249 E20.69366
G1 X98.393 Y91.594 E20.81238
G1 X100.923 Y91.867 E20.93087
G1 X103.449 Y92.068 E21.04886
G1 X106.011 Y92.199 E21.16831
G1 X108.513 Y92.255 E21.28485
G1 X111.08 Y92.242 E21.40438
G1 X113.621 Y92.155 E21.52277
G1 X116.133 Y92 E21.63996
G1 X118.674 Y91.769 E21.75877
G1 X121.193 Y91.468 E21.8769
G1 X123.698 Y91.098 E21.9948
G1 X126.228 Y90.65 E22.11444
G1 X128.668 Y90.146 E22.23046
G1 X131.168 Y89.557 E22.35006
G1 X133.623 Y88.903 E22.46836
G1 X134.89 Y88.526 E22.52991
G1 X135.015 Y88.489 E22.53598
G1 X135.868 Y88.247 E22.57727
G1 X136.747 Y88.039 E22.61933
G1 X137.641 Y87.91 E22.66139
G1 X138.543 Y87.861 E22.70345
G1 X139.445 Y87.891 E22.74548
G1 X140.341 Y88.001 E22.78751
G1 X141.225 Y88.19 E22.8296
G1 X142.088 Y88.456 E22.87165
G1 X142.924 Y88.798 E22.91371
G1 X143.726 Y89.212 E22.95574
G1 X144.489 Y89.695 E22.99779
G1 X145.206 Y90.244 E23.03984
G1 X146.078 Y91.068 E23.0957
G1 X146.449 Y91.462 E23.1209
G1 X146.568 Y91.59 E23.12904
G1 X147.062 Y92.133 E23.16322
G1 X147.177 Y92.262 E23.17127
G1 X147.643 Y92.792 E23.20413
G1 X148.209 Y93.496 E23.24619
G1 X148.71 Y94.247 E23.28823
G1 X149.143 Y95.04 E23.3303
G1 X149.504 Y95.868 E23.37236
G1 X149.79 Y96.724 E23.41439
G1 X150 Y97.602 E23.45642
G1 X150.131 Y98.496 E23.4985
G1 X150.182 Y99.398 E23.54056
G1 X150.154 Y100.3 E23.58258
G1 X150.045 Y101.197 E23.62466
G1 X149.858 Y102.08 E23.66669
G1 X149.594 Y102.944 E23.70876
G1 X149.254 Y103.781 E23.75082
G1 X148.841 Y104.584 E23.79287
G1 X148.394 Y105.298 E23.83209
G1 X147.935 Y105.967 E23.86987
G1 X146.488 Y108.116 E23.99051
G1 X145.126 Y110.265 E24.10898
G1 X143.83 Y112.449 E24.22723
G1 X142.592 Y114.674 E24.3458
G1 X141.422 Y116.923 E24.46384
G1 X140.314 Y119.21 E24.58218
G1 X139.323 Y121.407 E24.6944
G1 X139.027 Y122.086 E24.72889
G1 X138.63 Y122.898 E24.77098
G1 X138.126 Y123.726 E24.81612
G1 X137.974 Y123.951 E24.82876
G1 X137.436 Y124.676 E24.8708
G1 X136.836 Y125.351 E24.91285
G1 X136.178 Y125.97 E24.95492
G1 X135.468 Y126.528 E24.99697
G1 X134.712 Y127.022 E25.03902
G1 X133.915 Y127.447 E25.08108
G1 X133.084 Y127.799 E25.1231
G1 X132.527 Y127.988 E25.15049
G1 X132.154 Y128.103 E25.16866
G1 X131.328 Y128.321 E25.20844
G1 X129.439 Y128.734 E25.29848
G1 X129.24 Y128.775 E25.30794
G1 X127.891 Y129.042 E25.37198
G1 X127.755 Y129.068 E25.37842
G1 X126.33 Y129.33 E25.44589
G1 X126.163 Y129.359 E25.45378
G1 X125.137 Y129.53 E25.50222
G1 X124.939 Y129.561 E25.51155
G1 X123.26 Y129.807 E25.59056
G1 X122.893 Y129.854 E25.60779
G1 X121.826 Y129.971 E25.65777
G1 X121.501 Y130.002 E25.67298
G1 X120.984 Y130.042 E25.69712
G1 X120.081 Y130.071 E25.73919
G1 X119.394 Y130.04 E25.77121
G1 X116.758 Y129.832 E25.89434
G1 X114.178 Y129.7 E26.01463
G1 X111.686 Y129.645 E26.1307
G1 X109.113 Y129.659 E26.25051
G1 X106.581 Y129.745 E26.36848
G1 X104.047 Y129.903 E26.4867
G1 X101.615 Y130.122 E26.6004
G1 X101.135 Y130.171 E26.62287
G1 X100.233 Y130.224 E26.66494
G1 X99.529 Y130.21 E26.69773
G1 X99.002 Y130.181 E26.72231
G1 X98.656 Y130.156 E26.73846
G1 X97.916 Y130.09 E26.77305
G1 X97.45 Y130.037 E26.79489
G1 X95.351 Y129.752 E26.89353
G1 X95.182 Y129.728 E26.90148
G1 X94.233 Y129.583 E26.94618
G1 X94.078 Y129.558 E26.95349
G1 X92.53 Y129.297 E27.02659
G1 X92.371 Y129.269 E27.0341
G1 X91.084 Y129.031 E27.09505
G1 X90.907 Y128.997 E27.10344
G1 X89.333 Y128.677 E27.17823
G1 X89.196 Y128.648 E27.18475
G1 X88.718 Y128.544 E27.20753
G1 X88.674 Y128.534 E27.20963
G1 X88.539 Y128.504 E27.21607
G1 X87.667 Y128.269 E27.25813
G1 X86.819 Y127.958 E27.30018
G1 X86.002 Y127.574 E27.34222
G1 X85.222 Y127.118 E27.38429
G1 X84.486 Y126.595 E27.42633
G1 X83.799 Y126.01 E27.46835
G1 X83.166 Y125.365 E27.51043
G1 X82.592 Y124.668 E27.55247
G1 X82.207 Y124.117 E27.58377
G1 X82.061 Y123.893 E27.59622
G1 X81.602 Y123.115 E27.63829
G1 X81.342 Y122.592 E27.66548
G1 X80.199 Y120.111 E27.79268
G1 X79.063 Y117.82 E27.91175
G1 X77.891 Y115.613 E28.02811
G1 X76.625 Y113.384 E28.14747
G1 X75.308 Y111.211 E28.26579
G1 X73.941 Y109.092 E28.38321
G1 X72.466 Y106.944 E28.50454
G1 X71.725 Y105.909 E28.56381
G1 X71.232 Y105.153 E28.60584
G1 X70.808 Y104.355 E28.64792
G1 X70.457 Y103.523 E28.68997
G1 X70.18 Y102.664 E28.73199
G1 X69.98 Y101.783 E28.77406
G1 X69.859 Y100.888 E28.81611
G1 X69.818 Y99.986 E28.85816
G1 X69.857 Y99.083 E28.90025
